icons/svg/section-break.svg

<svg width="24" height="24" viewBox="0 0 24 24" fill="none" xmlns="http://www.w3.org/2000/svg">
<path d="M2.75 12H21.25" stroke="currentColor" stroke-width="1.5" stroke-linecap="round" stroke-linejoin="round"/>
<path d="M4 2.75V5.5C4 6.60457 4.89543 7.5 6 7.5H18C19.1046 7.5 20 6.60457 20 5.5V2.75" stroke="currentColor" stroke-width="1.5" stroke-linecap="round" stroke-linejoin="round"/>
<path d="M4 21.25V18.5C4 17.3954 4.89543 16.5 6 16.5H18C19.1046 16.5 20 17.3954 20 18.5V21.25" stroke="currentColor" stroke-width="1.5" stroke-linecap="round" stroke-linejoin="round"/>
</svg>

<svg xmlns="http://www.w3.org/2000/svg" width="24" height="24" fill="none" viewBox="0 0 24 24"><path stroke="currentColor" stroke-linecap="round" stroke-linejoin="round" stroke-width="1.5" d="M2.75 12h18.5M4 2.75V5.5a2 2 0 0 0 2 2h12a2 2 0 0 0 2-2V2.75M4 21.25V18.5a2 2 0 0 1 2-2h12a2 2 0 0 1 2 2v2.75"/></svg>
